X: 1319
T: Carl Piglich Waltz No 1
B: australian traditional tunes wiki
M:3/4
L:1/8
R: Waltz
Q: 1/4=100
K:Em
V:1 
"Bm"B4BA | B4BB |"C" c4cB | c4cc | "D"d4dA | d4Ad | "Em"e6- |e4 ef |
"G"g4f2 | "D7"e4ef | "G"g6 | B6 | "D"A4B2 | "C"c4B2 | "D7"A6- | A4AA |
"Em"B4BA | B4BB |"C" c4cB | c4cc | "D"d4dA | d4Ad | "C"e6- |e4 ef |
"G"g4f2 | "D7"e4ef | "G"g6 | B2d2z2 | d6 |"D7" a2z2f2 | "G"g6 -| g2zdgb ||
|:"G"a2gggg | g3dgb | a2g2zg | "D7"f6 | f2A3B | c6 | e2d3c | "G"B3 dgB' |
a2gggg | g3dgb | a2g2zg | "D7"f6 | f2A2B2 | c2B2A2 | "G"G6- | G2zdgb:|
% abcbook-tune_id 6342d53adbf12d3c1b26362c


% abcbook-boost 0
% abcbook-tablature 
% abcbook-transpose 
% abcbook-lastupdated 1665324358974
% abcbook-soundfonts 
% abcbook-repeats 1
% NFF Book 2022
% Bush Traditions recording played by Mark Schuster

